X: 12
T: The Butterfly
C:Tommy Potts
M:9/8
L:1/8
R:slip jig
K:Em
"Em"B2 E G2E "Dsus2" F3 |"Em(Cmaj7)"B2 E G2E "Dsus2" FED  |"Em"B2 E G2E "Dsus2" F2D|"Em(Cmaj7)"B2d d2B "Dsus2" AFD :|
|: "Em(Am7)"B2c e2f g3|"Em(Cmaj7)"B2c g2e "Dsus2" dBA  |"Em(Am7)"B2c e2f  g2 a  |"Em(Cmaj7)"b2a g2e "Dsus2" dBA :|
|: "Em" B3   B2A  G2 A  | "EmDis"B3   BAB dBA  |"G" B3   B2A  G2 A  |"A" Bcd g2e "Dsus2" dBA :|


